X:27
T:Late For Work
M:6/8
L:1/8
C:Taz Tarry
S:Copyright B.Tarry, September 1993
Q:3/8=110
R:Jig
K:G
|:G2BA2c|BAGg3|gfe dcB|cBA BAG|
G2BA2c|BAGg3|gfe dcB|cBA G3:|
|:G2B GBG|F2A FAF|E2A EAE|DFA B2G|
G2B GBG|F2A FAF|DFA cBA|BAF G3:|

